happy-plant-logo.svg

<svg width="392" height="392" fill="none" xmlns="http://www.w3.org/2000/svg"><path d="M175.98 115.74c6.19-19.547 33.85-19.547 40.04 0l3.527 11.139c3.281 10.361 13.926 16.507 24.54 14.168l11.41-2.515c20.023-4.413 33.853 19.542 20.02 34.676l-7.882 8.624c-7.333 8.022-7.333 20.314 0 28.336l7.882 8.624c13.833 15.134.003 39.089-20.02 34.676l-11.41-2.515c-10.614-2.339-21.259 3.807-24.54 14.168l-3.527 11.139c-6.19 19.547-33.85 19.547-40.04 0l-3.527-11.139c-3.281-10.361-13.926-16.507-24.54-14.168l-11.41 2.515c-20.023 4.413-33.853-19.542-20.02-34.676l7.882-8.624c7.333-8.022 7.333-20.314 0-28.336l-7.882-8.624c-13.833-15.134-.003-39.089 20.02-34.676l11.41 2.515c10.614 2.339 21.259-3.807 24.54-14.168l3.527-11.139z" fill="#FF9800"/><path d="M218.792 116.483c15.134-13.833 39.089-.003 34.676 20.02l-2.515 11.41c-2.339 10.614 3.807 21.259 14.168 24.54l11.139 3.527c19.547 6.19 19.547 33.85 0 40.04l-11.139 3.527c-10.361 3.281-16.507 13.926-14.168 24.54l2.515 11.41c4.413 20.023-19.542 33.853-34.676 20.02l-8.624-7.882c-8.022-7.333-20.314-7.333-28.336 0l-8.624 7.882c-15.134 13.833-39.089.003-34.676-20.02l2.515-11.41c2.339-10.614-3.807-21.259-14.168-24.54l-11.139-3.527c-19.547-6.19-19.547-33.85 0-40.04l11.139-3.527c10.361-3.281 16.507-13.926 14.168-24.54l-2.515-11.41c-4.413-20.023 19.542-33.853 34.676-20.02l8.624 7.882c8.022 7.333 20.314 7.333 28.336 0l8.624-7.882z" fill="#FEC106"/><circle cx="196.45" cy="195.55" r="53.974" fill="#fff"/><circle cx="174.86" cy="176.659" r="10.795" fill="#FD5722"/><circle cx="217.14" cy="176.659" r="10.795" fill="#FD5722"/><path d="M196 230.634c15.285 0 28.061-10.89 31.198-25.435.815-3.78-2.397-6.95-6.263-6.95h-49.87c-3.866 0-7.078 3.17-6.263 6.95 3.137 14.545 15.913 25.435 31.198 25.435z" fill="#FD5722"/></svg>

<svg xmlns="http://www.w3.org/2000/svg" fill="none" viewBox="101.08 101.08 189.84 189.84"><path d="M175.98 115.74C182.17 96.1932 209.83 96.1932 216.02 115.74L219.547 126.879C222.828 137.24 233.473 143.386 244.087 141.047L255.497 138.532C275.52 134.119 289.35 158.074 275.517 173.208L267.635 181.832C260.302 189.854 260.302 202.146 267.635 210.168L275.517 218.792C289.35 233.926 275.52 257.881 255.497 253.468L244.087 250.953C233.473 248.614 222.828 254.76 219.547 265.121L216.02 276.26C209.83 295.807 182.17 295.807 175.98 276.26L172.453 265.121C169.172 254.76 158.527 248.614 147.913 250.953L136.503 253.468C116.48 257.881 102.65 233.926 116.483 218.792L124.365 210.168C131.698 202.146 131.698 189.854 124.365 181.832L116.483 173.208C102.65 158.074 116.48 134.119 136.503 138.532L147.913 141.047C158.527 143.386 169.172 137.24 172.453 126.879L175.98 115.74Z" fill="#FF9800"></path><g style="mix-blend-mode:multiply"><path d="M218.792 116.483C233.926 102.65 257.881 116.48 253.468 136.503L250.953 147.913C248.614 158.527 254.76 169.172 265.121 172.453L276.26 175.98C295.807 182.17 295.807 209.83 276.26 216.02L265.121 219.547C254.76 222.828 248.614 233.473 250.953 244.087L253.468 255.497C257.881 275.52 233.926 289.35 218.792 275.517L210.168 267.635C202.146 260.302 189.854 260.302 181.832 267.635L173.208 275.517C158.074 289.35 134.119 275.52 138.532 255.497L141.047 244.087C143.386 233.473 137.24 222.828 126.879 219.547L115.74 216.02C96.1932 209.83 96.1932 182.17 115.74 175.98L126.879 172.453C137.24 169.172 143.386 158.527 141.047 147.913L138.532 136.503C134.119 116.48 158.074 102.65 173.208 116.483L181.832 124.365C189.854 131.698 202.146 131.698 210.168 124.365L218.792 116.483Z" fill="#FEC106"></path></g><circle cx="196.45" cy="195.55" r="53.9744" fill="white"></circle><circle cx="174.86" cy="176.659" r="10.7949" fill="#FD5722"></circle><circle cx="217.14" cy="176.659" r="10.7949" fill="#FD5722"></circle><path d="M196 230.634C211.285 230.634 224.061 219.744 227.198 205.199C228.013 201.419 224.801 198.249 220.935 198.249H171.065C167.199 198.249 163.987 201.419 164.802 205.199C167.939 219.744 180.715 230.634 196 230.634Z" fill="#FD5722"></path></svg>
